docs/img/favicons/152.svg

<svg width="152" height="152" viewBox="0 0 152 152" fill="none" xmlns="http://www.w3.org/2000/svg">
<rect width="152" height="152" fill="#EEEEEE"/>
<path fill-rule="evenodd" clip-rule="evenodd" d="M115.688 54.1741L123.886 88.5796C124.002 88.9342 124.03 89.3123 123.968 89.6805C123.905 90.0486 123.754 90.3955 123.528 90.6903C123.303 90.9851 123.009 91.2187 122.673 91.3706C122.337 91.5224 121.97 91.5878 121.603 91.5609H115.083C113.96 101.016 106.019 108.345 96.3902 108.345C86.7611 108.345 78.8202 101.016 77.697 91.5609H74.4995C73.3753 101.126 65.3468 108.542 55.6098 108.542C45.8563 108.542 37.8172 101.101 36.7144 91.5125H30.3596C30.0007 91.53 29.643 91.46 29.3162 91.3083C28.9894 91.1566 28.7031 90.9277 28.4812 90.6406C28.2592 90.3535 28.1081 90.0167 28.0404 89.6581C27.9726 89.2996 27.9903 88.9298 28.0919 88.5796L36.3061 54.1741C36.8769 50.3871 40.429 43.4576 49.9434 43.4576C50.5743 43.4576 51.1793 43.7123 51.6254 44.1656C52.0714 44.6189 52.322 45.2338 52.322 45.8749C52.322 46.516 52.0714 47.1308 51.6254 47.5841C51.1793 48.0375 50.5743 48.2921 49.9434 48.2921C42.2843 48.2921 41.095 54.303 40.9999 54.9637L33.4359 86.7425H36.7452C37.9594 77.2768 45.9425 69.9663 55.6098 69.9663C65.2717 69.9663 73.2513 77.2688 74.4723 86.7269L77.7226 86.7417C78.9359 77.386 86.8312 70.1641 96.3902 70.1641C105.968 70.1641 113.875 77.4141 115.065 86.7964V86.7103H118.542L110.994 54.9637C110.883 54.303 109.742 48.2921 102.051 48.2921C101.42 48.2921 100.815 48.0375 100.369 47.5841C99.9228 47.1308 99.6722 46.516 99.6722 45.8749C99.6722 45.2338 99.9228 44.6189 100.369 44.1656C100.815 43.7123 101.42 43.4576 102.051 43.4576C111.565 43.4576 115.117 50.3871 115.688 54.1741ZM69.7718 91.5609C69.8899 90.8097 69.9512 90.0393 69.9512 89.2543C69.9512 88.3928 69.8773 87.5488 69.7356 86.7284C68.5562 79.9021 62.6806 74.7141 55.6098 74.7141C48.5348 74.7141 42.6563 79.9083 41.4818 86.7405C41.3415 87.5571 41.2683 88.3971 41.2683 89.2543C41.2683 90.0265 41.3277 90.7847 41.442 91.5243C42.517 98.4764 48.4508 103.795 55.6098 103.795C62.7561 103.795 68.6817 98.4951 69.7718 91.5609ZM110.355 91.5609C110.474 90.81 110.537 90.0395 110.537 89.2543C110.537 81.3333 104.203 74.912 96.3902 74.912C88.5774 74.912 82.2439 81.3333 82.2439 89.2543C82.2439 90.0395 82.3061 90.81 82.4259 91.5609C83.5141 98.3854 89.3519 103.597 96.3902 103.597C103.429 103.597 109.266 98.3854 110.355 91.5609Z" fill="black"/>
</svg>

<svg width="152" height="152" fill="none" xmlns="http://www.w3.org/2000/svg"><path fill="#EEE" d="M0 0h152v152H0z"/><path fill-rule="evenodd" clip-rule="evenodd" d="M115.688 54.174l8.198 34.406a2.297 2.297 0 01-.358 2.11 2.233 2.233 0 01-.855.68 2.205 2.205 0 01-1.07.19h-6.52c-1.123 9.456-9.064 16.785-18.693 16.785-9.629 0-17.57-7.329-18.693-16.784h-3.198c-1.124 9.565-9.152 16.981-18.89 16.981-9.753 0-17.792-7.441-18.895-17.03H30.36a2.22 2.22 0 01-1.044-.204 2.257 2.257 0 01-.835-.667 2.323 2.323 0 01-.39-2.061l8.215-34.406c.57-3.787 4.123-10.716 13.637-10.716.631 0 1.236.254 1.682.708.446.453.697 1.068.697 1.709s-.25 1.256-.697 1.71a2.36 2.36 0 01-1.682.707c-7.659 0-8.848 6.011-8.943 6.672l-7.564 31.779h3.31c1.213-9.466 9.197-16.777 18.864-16.777 9.662 0 17.641 7.303 18.862 16.76l3.25.016c1.214-9.356 9.11-16.578 18.668-16.578 9.578 0 17.485 7.25 18.675 16.632v-.086h3.477l-7.548-31.746c-.111-.661-1.252-6.672-8.943-6.672a2.359 2.359 0 01-1.682-.708 2.437 2.437 0 01-.697-1.71c0-.64.25-1.255.697-1.708a2.36 2.36 0 011.682-.708c9.514 0 13.066 6.93 13.637 10.716zM69.772 91.561a14.845 14.845 0 00-.036-4.833c-1.18-6.826-7.055-12.014-14.126-12.014-7.075 0-12.954 5.194-14.128 12.026a14.838 14.838 0 00-.04 4.784c1.075 6.952 7.009 12.271 14.168 12.271 7.146 0 13.072-5.3 14.162-12.234zm40.583 0c.119-.751.182-1.522.182-2.307 0-7.92-6.334-14.342-14.147-14.342-7.813 0-14.146 6.421-14.146 14.342 0 .785.062 1.556.182 2.307 1.088 6.824 6.926 12.036 13.964 12.036 7.039 0 12.876-5.212 13.965-12.036z" fill="#000"/></svg>
